material/.icons/material/card-account-phone.svg

<svg xmlns="http://www.w3.org/2000/svg" viewBox="0 0 24 24"><path d="M22 3H2a2 2 0 00-2 2v14a2 2 0 002 2h20a2 2 0 002-2V5a2 2 0 00-2-2M8 6a3 3 0 013 3 3 3 0 01-3 3 3 3 0 01-3-3 3 3 0 013-3m6 12H2v-1c0-2 4-3.1 6-3.1s6 1.1 6 3.1v1m3.85-4h1.65l1.5 2-2 2c-1.3-1-2.27-2.39-2.72-4-.18-.64-.28-1.31-.28-2s.1-1.36.28-2c.45-1.62 1.42-3 2.72-4l2 2-1.5 2h-1.65c-.22.63-.35 1.3-.35 2s.13 1.37.35 2z"/></svg>

<?xml version="1.0" encoding="UTF-8"?><!DOCTYPE svg PUBLIC "-//W3C//DTD SVG 1.1//EN" "http://www.w3.org/Graphics/SVG/1.1/DTD/svg11.dtd"><svg xmlns="http://www.w3.org/2000/svg" xmlns:xlink="http://www.w3.org/1999/xlink" version="1.1" id="mdi-card-account-phone" width="24" height="24" viewBox="0 0 24 24"><path d="M22,3H2A2,2 0 0,0 0,5V19A2,2 0 0,0 2,21H22A2,2 0 0,0 24,19V5A2,2 0 0,0 22,3M8,6A3,3 0 0,1 11,9A3,3 0 0,1 8,12A3,3 0 0,1 5,9A3,3 0 0,1 8,6M14,18H2V17C2,15 6,13.9 8,13.9C10,13.9 14,15 14,17V18M17.85,14H19.5L21,16L19,18C17.7,17 16.73,15.61 16.28,14C16.1,13.36 16,12.69 16,12C16,11.31 16.1,10.64 16.28,10C16.73,8.38 17.7,7 19,6L21,8L19.5,10H17.85C17.63,10.63 17.5,11.3 17.5,12C17.5,12.7 17.63,13.37 17.85,14Z" /></svg>
